img/icon-instagram.svg

<svg xmlns="http://www.w3.org/2000/svg" width="21" height="20"><path fill="#FFF" d="M10.333 1.802c2.67 0 2.987.01 4.042.059 2.71.123 3.976 1.409 4.1 4.099.048 1.054.057 1.37.057 4.04 0 2.672-.01 2.988-.058 4.042-.124 2.687-1.386 3.975-4.099 4.099-1.055.048-1.37.058-4.042.058-2.67 0-2.986-.01-4.04-.058-2.717-.124-3.976-1.416-4.1-4.1-.048-1.054-.058-1.37-.058-4.041 0-2.67.01-2.986.058-4.04.124-2.69 1.387-3.977 4.1-4.1 1.054-.048 1.37-.058 4.04-.058zm0-1.802C7.618 0 7.278.012 6.211.06 2.579.227.56 2.242.394 5.877.345 6.944.334 7.284.334 10s.011 3.057.06 4.123c.166 3.632 2.181 5.65 5.816 5.817 1.068.048 1.408.06 4.123.06 2.716 0 3.057-.012 4.124-.06 3.628-.167 5.651-2.182 5.816-5.817.049-1.066.06-1.407.06-4.123s-.011-3.056-.06-4.122C20.11 2.249 18.093.228 14.458.06 13.39.01 13.049 0 10.333 0zm0 4.865a5.135 5.135 0 100 10.27 5.135 5.135 0 000-10.27zm0 8.468a3.333 3.333 0 110-6.666 3.333 3.333 0 010 6.666zm5.339-9.87a1.2 1.2 0 10-.001 2.4 1.2 1.2 0 000-2.4z"/></svg>

<?xml version="1.0" encoding="UTF-8" standalone="no"?>
<!DOCTYPE svg PUBLIC "-//W3C//DTD SVG 1.1//EN" "http://www.w3.org/Graphics/SVG/1.1/DTD/svg11.dtd">
<svg width="100%" height="100%" viewBox="0 0 21 20" version="1.1" xmlns="http://www.w3.org/2000/svg" xmlns:xlink="http://www.w3.org/1999/xlink" xml:space="preserve" xmlns:serif="http://www.serif.com/" style="fill-rule:evenodd;clip-rule:evenodd;stroke-linejoin:round;stroke-miterlimit:2;">
    <path d="M10.333,1.802C13.003,1.802 13.32,1.812 14.375,1.861C17.085,1.984 18.351,3.27 18.475,5.96C18.523,7.014 18.532,7.33 18.532,10C18.532,12.672 18.522,12.988 18.474,14.042C18.35,16.729 17.088,18.017 14.375,18.141C13.32,18.189 13.005,18.199 10.333,18.199C7.663,18.199 7.347,18.189 6.293,18.141C3.576,18.017 2.317,16.725 2.193,14.041C2.145,12.987 2.135,12.671 2.135,10C2.135,7.33 2.145,7.014 2.193,5.96C2.317,3.27 3.58,1.983 6.293,1.86C7.347,1.812 7.663,1.802 10.333,1.802ZM10.333,0C7.618,0 7.278,0.012 6.211,0.06C2.579,0.227 0.56,2.242 0.394,5.877C0.345,6.944 0.334,7.284 0.334,10C0.334,12.716 0.345,13.057 0.394,14.123C0.56,17.755 2.575,19.773 6.21,19.94C7.278,19.988 7.618,20 10.333,20C13.049,20 13.39,19.988 14.457,19.94C18.085,19.773 20.108,17.758 20.273,14.123C20.322,13.057 20.333,12.716 20.333,10C20.333,7.284 20.322,6.944 20.273,5.878C20.11,2.249 18.093,0.228 14.458,0.06C13.39,0.01 13.049,0 10.333,0ZM10.333,4.865C7.516,4.865 5.198,7.183 5.198,10C5.198,12.817 7.516,15.135 10.333,15.135C13.15,15.135 15.468,12.817 15.468,10C15.468,7.183 13.15,4.865 10.333,4.865ZM10.333,13.333C8.505,13.333 7,11.828 7,10C7,8.172 8.505,6.667 10.333,6.667C12.161,6.667 13.666,8.172 13.666,10C13.666,11.828 12.161,13.333 10.333,13.333ZM15.672,3.463C15.672,3.463 15.672,3.463 15.671,3.463C15.013,3.463 14.471,4.005 14.471,4.663C14.471,5.321 15.013,5.863 15.671,5.863C16.329,5.863 16.871,5.321 16.871,4.663C16.871,4.005 16.329,3.463 15.671,3.463L15.672,3.463Z" style="fill:white;fill-rule:nonzero;"/>
</svg>
